agir/groups/components/groupPage/images/empty-messages-bg.svg

<svg width="168" height="161" viewBox="0 0 168 161" fill="none" xmlns="http://www.w3.org/2000/svg">
<g clip-path="url(#clip0)">
<path d="M78.3196 161C114.921 161 144.592 159.497 144.592 157.643C144.592 155.788 114.921 154.285 78.3196 154.285C41.7182 154.285 12.0469 155.788 12.0469 157.643C12.0469 159.497 41.7182 161 78.3196 161Z" fill="#F2F2F2"/>
<path d="M117.042 54.2596H116.289V33.8263C116.289 30.6898 115.031 27.6817 112.793 25.4638C110.554 23.246 107.518 22 104.352 22H60.6557C57.4899 22 54.4536 23.246 52.215 25.4638C49.9764 27.6817 48.7188 30.6897 48.7188 33.8262V145.925C48.7187 149.062 49.9764 152.07 52.215 154.288C54.4536 156.505 57.4898 157.751 60.6557 157.751H104.352C107.518 157.751 110.554 156.505 112.792 154.288C115.031 152.07 116.289 149.062 116.289 145.925V68.8044H117.042L117.042 54.2596Z" fill="#3F3D56"/>
<path d="M113.747 33.9063V145.84C113.747 148.183 112.808 150.429 111.136 152.085C109.464 153.742 107.197 154.672 104.832 154.672H60.9265C58.5622 154.672 56.2947 153.742 54.6228 152.085C52.951 150.429 52.0118 148.183 52.0117 145.84V33.9063C52.0118 31.5639 52.951 29.3175 54.6229 27.6611C56.2947 26.0048 58.5622 25.0743 60.9265 25.0742H66.2528C65.9911 25.7114 65.8914 26.4025 65.9626 27.0868C66.0337 27.7711 66.2735 28.4276 66.6609 28.9985C67.0482 29.5695 67.5712 30.0373 68.1839 30.361C68.7966 30.6847 69.4802 30.8542 70.1746 30.8547H95.2076C95.9019 30.8542 96.5855 30.6847 97.1982 30.361C97.8109 30.0373 98.3339 29.5694 98.7213 28.9985C99.1086 28.4276 99.3484 27.7711 99.4196 27.0868C99.4907 26.4025 99.3911 25.7114 99.1293 25.0742H104.832C107.197 25.0743 109.464 26.0048 111.136 27.6611C112.808 29.3175 113.747 31.5639 113.747 33.9063Z" fill="white"/>
<path d="M99.6013 82.1757C99.3094 82.3267 99.0125 82.4697 98.7107 82.6047C98.4358 82.7278 98.1565 82.8434 97.8729 82.9516C97.7693 82.9908 97.6639 83.03 97.5585 83.0691C96.7249 83.3687 95.8687 83.6025 94.9979 83.7686C94.5668 83.8525 94.13 83.9185 93.6876 83.9663C93.3223 84.0074 92.9533 84.0366 92.5805 84.054C92.315 84.0671 92.0495 84.0726 91.7822 84.0726C90.7234 84.0731 89.667 83.975 88.6267 83.7798C88.3556 83.7313 88.0901 83.6735 87.8247 83.6101C86.5405 83.3052 85.2974 82.8506 84.1213 82.2559C84.0159 82.2036 83.9104 82.1477 83.805 82.0936C83.6487 82.0115 83.4963 81.9257 83.3438 81.8362C83.4171 81.7354 83.4963 81.6366 83.5772 81.5396C84.4582 80.4579 85.5593 79.5723 86.8089 78.9405C88.0585 78.3087 89.4284 77.9449 90.8295 77.8727C92.2305 77.8006 93.6311 78.0217 94.9401 78.5217C96.249 79.0218 97.437 79.7895 98.4264 80.7748C98.7698 81.1162 99.0882 81.4815 99.3791 81.8679C99.4562 81.9686 99.5297 82.0712 99.6013 82.1757Z" fill="#F4ED0F"/>
<path d="M92.1577 73.9824C96.7235 73.9824 100.425 70.3154 100.425 65.792C100.425 61.2685 96.7235 57.6016 92.1577 57.6016C87.5919 57.6016 83.8906 61.2685 83.8906 65.792C83.8906 70.3154 87.5919 73.9824 92.1577 73.9824Z" fill="#2F2E41"/>
<path d="M94.3563 73.9926C97.3381 72.3777 98.4339 68.6738 96.8039 65.7197C95.174 62.7656 91.4354 61.6799 88.4536 63.2948C85.4719 64.9096 84.376 68.6135 86.006 71.5676C87.636 74.5217 91.3746 75.6074 94.3563 73.9926Z" fill="#A0616A"/>
<path d="M97.8727 64.8073C96.4667 65.7674 94.7978 66.2784 93.0902 66.2716C93.6993 66.6901 94.3928 66.9727 95.1228 67.1001C92.8523 67.5826 90.5058 67.5957 88.23 67.1385C87.7242 67.0581 87.2361 66.892 86.7871 66.6475C86.5634 66.5237 86.3685 66.3546 86.215 66.1513C86.0616 65.948 85.953 65.715 85.8965 65.4674C85.7452 64.6115 86.4184 63.8339 87.118 63.3098C88.1891 62.5197 89.4241 61.9753 90.7336 61.716C92.0431 61.4568 93.3944 61.4891 94.6898 61.8108C95.5356 62.0274 96.3829 62.3934 96.9323 63.0663C97.4817 63.7393 97.6444 64.7767 97.121 65.4697L97.8727 64.8073Z" fill="#2F2E41"/>
<path d="M91.7806 50.4961C88.0852 50.4956 84.4909 51.6921 81.5456 53.9033C78.6004 56.1145 76.4656 59.2191 75.4667 62.744C74.4677 66.2688 74.6595 70.0206 76.0127 73.4275C77.3658 76.8344 79.8062 79.7095 82.9619 81.6147L83.0711 81.6781C83.1615 81.7322 83.2518 81.7844 83.3422 81.8348C83.4947 81.9243 83.6471 82.0101 83.8034 82.0922C83.9089 82.1463 84.0143 82.2022 84.1198 82.2545C85.2959 82.8492 86.539 83.3038 87.8231 83.6086C88.0886 83.6721 88.354 83.7299 88.6252 83.7784C89.6654 83.9736 90.7219 84.0717 91.7806 84.0712C92.048 84.0712 92.3135 84.0656 92.579 84.0526C92.9517 84.0358 93.3208 84.0066 93.686 83.9649C94.1285 83.9164 94.5653 83.8505 94.9964 83.7672C95.8671 83.6011 96.7233 83.3672 97.5569 83.0677C97.6624 83.0285 97.7677 82.9894 97.8713 82.9502C98.1556 82.842 98.4348 82.7264 98.7091 82.6033C99.0104 82.469 99.3072 82.326 99.5997 82.1742C102.531 80.6535 104.953 78.3228 106.573 75.4648C106.581 75.4499 106.59 75.435 106.598 75.42C107.462 73.8833 108.075 72.2206 108.415 70.4938C108.891 68.0629 108.819 65.5577 108.203 63.1576C107.588 60.7575 106.445 58.5219 104.855 56.6109C103.265 54.6998 101.269 53.1607 99.0087 52.1035C96.7484 51.0464 94.2801 50.4975 91.7806 50.4961H91.7806ZM106.289 75.2018C106.274 75.2279 106.261 75.254 106.246 75.2783C104.658 78.0941 102.269 80.3852 99.3775 81.8665C99.0894 82.0157 98.7963 82.1556 98.4983 82.2862C98.2516 82.3962 97.9994 82.5007 97.7452 82.5977C97.6378 82.6387 97.5287 82.6797 97.4195 82.717C96.6993 82.9777 95.9613 83.1871 95.211 83.3438C94.6545 83.4612 94.092 83.549 93.5259 83.6068C93.1776 83.6441 92.8237 83.6702 92.4678 83.6833C92.24 83.6926 92.0104 83.6982 91.7806 83.6982C90.756 83.6994 89.7336 83.6051 88.7269 83.4165C88.1144 83.3046 87.509 83.1576 86.9137 82.9763C86.0069 82.6988 85.1257 82.3449 84.2798 81.9187C84.1819 81.8683 84.084 81.818 83.9879 81.7657C83.8505 81.693 83.7112 81.6184 83.5756 81.5382C83.4739 81.4822 83.3723 81.4225 83.2725 81.3628C83.2141 81.3293 83.1558 81.2938 83.0974 81.2584C80.3306 79.575 78.1236 77.1239 76.7501 74.2092C75.3766 71.2944 74.8971 68.0443 75.371 64.862C75.845 61.6798 77.2516 58.7054 79.4163 56.3079C81.581 53.9104 84.4085 52.1953 87.5481 51.3753C90.6877 50.5554 94.0012 50.6668 97.0775 51.6956C100.154 52.7244 102.858 54.6253 104.853 57.1626C106.849 59.6999 108.049 62.7619 108.304 65.9687C108.559 69.1755 107.859 72.386 106.289 75.2018H106.289Z" fill="#3F3D56"/>
<path d="M87.9732 57.7106C87.8843 56.7839 86.7384 56.2134 85.8423 56.4934C84.9463 56.7733 84.358 57.6672 84.1801 58.5812C84.0946 58.9661 84.0865 59.364 84.1565 59.752C84.2264 60.14 84.373 60.5106 84.5878 60.8424C85.0407 61.4882 85.8731 61.8912 86.6494 61.7273C87.5356 61.5401 88.1496 60.6828 88.3253 59.8021C88.501 58.9214 88.3265 58.0134 88.1524 57.1324L87.9732 57.7106Z" fill="#2F2E41"/>
<path d="M100.579 59.0387C100.49 58.1121 99.3439 57.5416 98.4478 57.8215C97.5517 58.1014 96.9634 58.9953 96.7856 59.9093C96.7 60.2943 96.692 60.6921 96.7619 61.0802C96.8319 61.4682 96.9785 61.8387 97.1933 62.1705C97.6462 62.8163 98.4786 63.2193 99.2549 63.0554C100.141 62.8682 100.755 62.0109 100.931 61.1302C101.106 60.2495 100.932 59.3415 100.758 58.4605L100.579 59.0387Z" fill="#2F2E41"/>
<path d="M62.4937 73.9951C62.3764 73.995 62.2605 73.9707 62.1533 73.9236C62.0461 73.8766 61.95 73.8079 61.8711 73.722L52.5285 63.6246C52.4225 63.5103 52.2937 63.4189 52.1503 63.3564C52.0069 63.2939 51.8519 63.2615 51.6952 63.2614H2.32587C1.57666 63.2605 0.858377 62.9653 0.328606 62.4404C-0.201165 61.9156 -0.499159 61.204 -0.5 60.4617V42.8231C-0.499159 42.0808 -0.201165 41.3692 0.328606 40.8444C0.858377 40.3195 1.57666 40.0243 2.32587 40.0234H66.2875C67.0367 40.0243 67.755 40.3195 68.2848 40.8444C68.8146 41.3692 69.1126 42.0808 69.1134 42.8231V60.4617C69.1126 61.204 68.8146 61.9156 68.2848 62.4404C67.755 62.9653 67.0367 63.2605 66.2875 63.2614H64.4742C64.1745 63.2617 63.8871 63.3798 63.6751 63.5898C63.4632 63.7998 63.344 64.0845 63.3437 64.3814V73.1545C63.3444 73.3238 63.2931 73.4894 63.1966 73.6292C63.1001 73.769 62.9629 73.8764 62.8033 73.9371C62.7046 73.9754 62.5996 73.995 62.4937 73.9951Z" fill="white"/>
<path d="M2.32432 40.3945C1.67494 40.3953 1.05237 40.6512 0.593197 41.1061C0.134019 41.561 -0.124267 42.1778 -0.125 42.8211V60.4597C-0.124266 61.1031 0.134022 61.7199 0.593199 62.1748C1.05238 62.6297 1.67494 62.8856 2.32432 62.8863H51.6936C51.9025 62.8866 52.1091 62.9297 52.3003 63.0131C52.4915 63.0964 52.6632 63.2181 52.8045 63.3705L62.1471 73.4679C62.2113 73.5372 62.295 73.5857 62.3875 73.6071C62.4799 73.6284 62.5767 73.6216 62.6652 73.5875C62.7537 73.5534 62.8297 73.4936 62.8833 73.416C62.9369 73.3384 62.9656 73.2466 62.9656 73.1525V64.3795C62.966 63.9836 63.1249 63.6041 63.4075 63.3242C63.69 63.0442 64.0731 62.8868 64.4726 62.8863H66.286C66.9353 62.8856 67.5579 62.6297 68.0171 62.1748C68.4763 61.7199 68.7346 61.1031 68.7353 60.4597V42.8211C68.7346 42.1778 68.4763 41.561 68.0171 41.1061C67.5579 40.6512 66.9353 40.3953 66.286 40.3945H2.32432Z" fill="#571AFF"/>
<path d="M104.005 133.812C103.846 133.751 103.709 133.644 103.612 133.504C103.516 133.364 103.464 133.199 103.465 133.029V124.256C103.465 123.959 103.345 123.675 103.134 123.465C102.922 123.255 102.634 123.137 102.335 123.136H100.521C99.772 123.136 99.0537 122.84 98.5239 122.315C97.9941 121.791 97.6962 121.079 97.6953 120.337V102.698C97.6962 101.956 97.9941 101.244 98.5239 100.719C99.0537 100.194 99.772 99.8993 100.521 99.8984H164.483C165.232 99.8993 165.95 100.194 166.48 100.719C167.01 101.244 167.308 101.956 167.309 102.698V120.337C167.308 121.079 167.01 121.791 166.48 122.315C165.95 122.84 165.232 123.136 164.483 123.136H115.114C114.957 123.137 114.802 123.169 114.658 123.231C114.515 123.294 114.386 123.385 114.28 123.5L104.938 133.597C104.859 133.683 104.763 133.752 104.655 133.799C104.548 133.846 104.432 133.87 104.315 133.87C104.209 133.87 104.104 133.85 104.005 133.812Z" fill="white"/>
<path d="M100.52 100.27C99.8703 100.27 99.2477 100.526 98.7885 100.981C98.3293 101.436 98.071 102.053 98.0703 102.696V120.335C98.071 120.978 98.3293 121.595 98.7885 122.05C99.2477 122.505 99.8703 122.761 100.52 122.761H102.333C102.733 122.762 103.116 122.919 103.398 123.199C103.681 123.479 103.84 123.859 103.84 124.254V133.028C103.84 133.122 103.869 133.213 103.922 133.291C103.976 133.369 104.052 133.428 104.14 133.463C104.229 133.497 104.326 133.503 104.418 133.482C104.511 133.461 104.594 133.412 104.659 133.343L114.001 123.246C114.142 123.093 114.314 122.971 114.505 122.888C114.697 122.805 114.903 122.762 115.112 122.761H164.481C165.131 122.761 165.753 122.505 166.212 122.05C166.672 121.595 166.93 120.978 166.931 120.335V102.696C166.93 102.053 166.672 101.436 166.212 100.981C165.753 100.526 165.131 100.27 164.481 100.27H100.52Z" fill="#571AFF"/>
<path d="M84.0695 139.272C81.4465 140.936 78.4076 141.843 75.2934 141.892C72.1791 141.941 69.1126 141.13 66.4375 139.549C66.9081 138.682 67.5044 137.887 68.2074 137.19C69.292 136.11 70.6121 135.291 72.0662 134.796C73.5202 134.3 75.0695 134.142 76.5951 134.332C78.1207 134.522 79.5819 135.057 80.8665 135.894C82.1511 136.731 83.2249 137.849 84.0054 139.161C84.0261 139.197 84.0487 139.234 84.0695 139.272Z" fill="#F4ED0F"/>
<path d="M74.5173 130.353C79.1135 130.353 82.8394 126.662 82.8394 122.108C82.8394 117.555 79.1135 113.863 74.5173 113.863C69.9212 113.863 66.1953 117.555 66.1953 122.108C66.1953 126.662 69.9212 130.353 74.5173 130.353Z" fill="#2F2E41"/>
<path d="M80.7078 127.924C82.3486 124.95 81.2455 121.222 78.2439 119.596C75.2424 117.971 71.479 119.064 69.8381 122.037C68.1973 125.011 69.3005 128.74 72.302 130.365C75.3036 131.991 79.067 130.898 80.7078 127.924Z" fill="#FFB8B8"/>
<path d="M68.7656 121.118C70.181 122.085 71.861 122.599 73.58 122.592C72.9668 123.013 72.2687 123.298 71.5339 123.426C73.8194 123.912 76.1815 123.925 78.4724 123.465C78.9816 123.384 79.473 123.217 79.9249 122.97C80.1501 122.846 80.3463 122.676 80.5008 122.471C80.6553 122.266 80.7645 122.032 80.8215 121.783C80.9737 120.921 80.2961 120.138 79.5918 119.611C78.5136 118.815 77.2704 118.267 75.9522 118.006C74.634 117.745 73.2737 117.778 71.9698 118.102C71.1183 118.32 70.2654 118.688 69.7123 119.366C69.1593 120.043 68.9955 121.087 69.5224 121.785L68.7656 121.118Z" fill="#2F2E41"/>
<path d="M75.0241 142.084C70.9484 142.083 67.0098 140.626 63.9308 137.98C60.8517 135.335 58.8387 131.678 58.261 127.681C57.6832 123.684 58.5794 119.614 60.7853 116.219C62.9911 112.824 66.3586 110.33 70.2702 109.196C74.1817 108.061 78.3749 108.362 82.0807 110.043C85.7865 111.724 88.7563 114.672 90.4455 118.347C92.1346 122.021 92.4298 126.176 91.2769 130.049C90.124 133.922 87.6003 137.253 84.1687 139.432C81.4398 141.166 78.2658 142.086 75.0241 142.084ZM75.0241 108.882C71.7468 108.882 68.5429 109.844 65.8178 111.648C63.0927 113.452 60.9687 116.016 59.7144 119.015C58.46 122.015 58.1318 125.316 58.7711 128.5C59.4104 131.685 60.9885 134.61 63.3059 136.906C65.6234 139.202 68.5759 140.766 71.7903 141.399C75.0047 142.032 78.3364 141.707 81.3642 140.464C84.392 139.222 86.9798 137.117 88.8004 134.418C90.621 131.718 91.5925 128.544 91.5922 125.297C91.5873 120.945 89.8401 116.773 86.7341 113.695C83.628 110.618 79.4167 108.887 75.0241 108.882Z" fill="#3F3D56"/>
<path d="M103.926 135.483C106.474 135.483 108.539 135.256 108.539 134.976C108.539 134.696 106.474 134.469 103.926 134.469C101.378 134.469 99.3125 134.696 99.3125 134.976C99.3125 135.256 101.378 135.483 103.926 135.483Z" fill="#F2F2F2"/>
<path d="M62.6955 75.7919C65.2434 75.7919 67.3089 75.5648 67.3089 75.2846C67.3089 75.0045 65.2434 74.7773 62.6955 74.7773C60.1476 74.7773 58.082 75.0045 58.082 75.2846C58.082 75.5648 60.1476 75.7919 62.6955 75.7919Z" fill="#F2F2F2"/>
<rect x="7.21484" y="45.6992" width="54.0073" height="4.48387" fill="white"/>
<rect x="105.586" y="105.914" width="54.0072" height="4.48386" fill="white"/>
<rect x="7.21484" y="52.1055" width="27.0036" height="4.48387" fill="white"/>
<rect x="105.586" y="112.32" width="27.0036" height="4.48383" fill="white"/>
</g>
<defs>
<clipPath id="clip0">
<rect width="168" height="161" fill="white"/>
</clipPath>
</defs>
</svg>

<svg width="168" height="161" fill="none" xmlns="http://www.w3.org/2000/svg"><g clip-path="url(#a)"><path d="M78.32 161c36.601 0 66.272-1.503 66.272-3.357 0-1.855-29.671-3.358-66.272-3.358-36.602 0-66.273 1.503-66.273 3.358 0 1.854 29.671 3.357 66.273 3.357Z" fill="#F2F2F2"/><path d="M117.042 54.26h-.753V33.826c0-3.136-1.258-6.144-3.496-8.362A11.995 11.995 0 0 0 104.352 22H60.656a11.994 11.994 0 0 0-8.441 3.464 11.771 11.771 0 0 0-3.496 8.362v112.099a11.77 11.77 0 0 0 3.496 8.363 11.997 11.997 0 0 0 8.44 3.463h43.697c3.166 0 6.202-1.246 8.44-3.463a11.77 11.77 0 0 0 3.497-8.363v-77.12h.753V54.26Z" fill="#3F3D56"/><path d="M113.747 33.906V145.84a8.788 8.788 0 0 1-2.611 6.245 8.954 8.954 0 0 1-6.304 2.587H60.927a8.955 8.955 0 0 1-6.304-2.587 8.79 8.79 0 0 1-2.611-6.245V33.906c0-2.342.939-4.588 2.61-6.245a8.958 8.958 0 0 1 6.304-2.587h5.327a4.162 4.162 0 0 0 .408 3.924c.387.572.91 1.04 1.523 1.363a4.269 4.269 0 0 0 1.99.494h25.034c.694 0 1.377-.17 1.99-.494a4.225 4.225 0 0 0 1.523-1.363 4.175 4.175 0 0 0 .408-3.924h5.703c2.365 0 4.632.93 6.304 2.587a8.79 8.79 0 0 1 2.611 6.245Z" fill="#fff"/><path d="M99.601 82.176a17.412 17.412 0 0 1-2.043.893 16.973 16.973 0 0 1-4.978.985 17.067 17.067 0 0 1-4.756-.444 16.815 16.815 0 0 1-3.703-1.354c-.105-.052-.21-.108-.316-.162a11.186 11.186 0 0 1-.461-.258 9.967 9.967 0 0 1 3.465-2.896A10.059 10.059 0 0 1 99.6 82.177Z" fill="#F4ED0F"/><path d="M92.158 73.982c4.566 0 8.267-3.667 8.267-8.19s-3.701-8.19-8.267-8.19c-4.566 0-8.267 3.667-8.267 8.19s3.7 8.19 8.267 8.19Z" fill="#2F2E41"/><path d="M94.356 73.993c2.982-1.615 4.078-5.32 2.448-8.273-1.63-2.954-5.369-4.04-8.35-2.425-2.982 1.615-4.078 5.319-2.448 8.273 1.63 2.954 5.369 4.04 8.35 2.425Z" fill="#A0616A"/><path d="M97.873 64.807a8.423 8.423 0 0 1-4.783 1.465c.61.418 1.303.7 2.033.828a17.03 17.03 0 0 1-6.893.038 4.492 4.492 0 0 1-1.443-.49 1.822 1.822 0 0 1-.89-1.18c-.152-.856.521-1.634 1.221-2.158a9.053 9.053 0 0 1 3.616-1.594 9.093 9.093 0 0 1 3.956.095c.846.216 1.693.582 2.242 1.255.55.673.712 1.71.189 2.404l.752-.663Z" fill="#2F2E41"/><path d="M91.78 50.496c-3.695 0-7.29 1.196-10.234 3.407a16.781 16.781 0 0 0-6.08 8.841 16.638 16.638 0 0 0 .547 10.683 16.825 16.825 0 0 0 6.949 8.188l.11.063c.09.054.18.106.27.157.153.09.305.175.461.257.106.054.211.11.317.162a16.811 16.811 0 0 0 4.505 1.524 17.066 17.066 0 0 0 5.061.187 16.987 16.987 0 0 0 3.87-.897l.315-.118a16.637 16.637 0 0 0 1.728-.776 17.018 17.018 0 0 0 6.974-6.71l.025-.044a16.59 16.59 0 0 0 1.817-4.926 16.64 16.64 0 0 0-.212-7.336 16.728 16.728 0 0 0-3.348-6.547 16.938 16.938 0 0 0-5.846-4.508 17.087 17.087 0 0 0-7.228-1.607Zm14.509 24.706c-.015.026-.028.052-.043.076a16.536 16.536 0 0 1-7.748 7.008 14.882 14.882 0 0 1-1.079.431 16.39 16.39 0 0 1-3.893.89 16.861 16.861 0 0 1-1.745.091 16.48 16.48 0 0 1-3.054-.282 16.244 16.244 0 0 1-1.813-.44 16.742 16.742 0 0 1-2.634-1.057c-.098-.05-.196-.101-.292-.153a9.941 9.941 0 0 1-.412-.228 9.841 9.841 0 0 1-.303-.175c-.059-.034-.117-.07-.176-.105a16.48 16.48 0 0 1-6.347-7.049 16.291 16.291 0 0 1-1.379-9.347 16.362 16.362 0 0 1 4.045-8.554 16.608 16.608 0 0 1 8.132-4.933 16.73 16.73 0 0 1 9.53.32 16.574 16.574 0 0 1 7.775 5.468 16.3 16.3 0 0 1 1.436 18.04Z" fill="#3F3D56"/><path d="M87.973 57.71c-.089-.926-1.235-1.497-2.13-1.217-.897.28-1.485 1.174-1.663 2.088a2.968 2.968 0 0 0 .408 2.261c.453.646 1.285 1.05 2.061.885.887-.187 1.5-1.044 1.676-1.925.176-.88.001-1.789-.173-2.67l-.179.579Zm12.606 1.329c-.089-.927-1.235-1.497-2.131-1.218-.896.28-1.485 1.174-1.662 2.088a2.969 2.969 0 0 0 .407 2.261c.453.646 1.286 1.05 2.062.885.886-.187 1.5-1.044 1.676-1.925.175-.88.001-1.788-.173-2.67l-.179.579Z" fill="#2F2E41"/><path d="M62.494 73.995a.848.848 0 0 1-.623-.273l-9.343-10.097a1.134 1.134 0 0 0-.833-.364H2.325a2.84 2.84 0 0 1-1.996-.82A2.79 2.79 0 0 1-.5 60.46V42.824c0-.742.299-1.454.829-1.979a2.843 2.843 0 0 1 1.997-.82h63.961c.75 0 1.468.295 1.998.82a2.79 2.79 0 0 1 .828 1.98v17.638a2.79 2.79 0 0 1-.828 1.978c-.53.525-1.248.82-1.998.821h-1.813c-.3 0-.587.119-.799.329-.212.21-.331.495-.331.791v8.773a.83.83 0 0 1-.54.783.858.858 0 0 1-.31.058Z" fill="#fff"/><path d="M2.324 40.395c-.65 0-1.272.256-1.73.711a2.418 2.418 0 0 0-.719 1.715V60.46c0 .643.259 1.26.718 1.715.46.455 1.082.71 1.731.711h49.37a1.523 1.523 0 0 1 1.11.484l9.343 10.098a.473.473 0 0 0 .819-.316V64.38c0-.395.159-.775.441-1.055a1.52 1.52 0 0 1 1.066-.438h1.813c.65 0 1.272-.256 1.731-.711.46-.455.718-1.072.718-1.715V42.82c0-.643-.259-1.26-.718-1.715a2.464 2.464 0 0 0-1.731-.712H2.324Z" fill="#571AFF"/><path d="M104.005 133.812a.83.83 0 0 1-.54-.783v-8.773c0-.297-.12-.581-.331-.791-.212-.21-.5-.328-.799-.329h-1.814a2.838 2.838 0 0 1-1.997-.821 2.787 2.787 0 0 1-.829-1.978v-17.639c.001-.742.3-1.454.829-1.979a2.842 2.842 0 0 1 1.997-.82h63.962c.749 0 1.467.295 1.997.82.53.525.828 1.237.829 1.979v17.639a2.787 2.787 0 0 1-.829 1.978 2.839 2.839 0 0 1-1.997.821h-49.369a1.136 1.136 0 0 0-.834.364l-9.342 10.097a.838.838 0 0 1-.623.273.865.865 0 0 1-.31-.058Z" fill="#fff"/><path d="M100.52 100.27a2.46 2.46 0 0 0-1.731.711 2.418 2.418 0 0 0-.719 1.715v17.639c.001.643.26 1.26.719 1.715a2.46 2.46 0 0 0 1.731.711h1.813c.4.001.783.158 1.065.438.283.28.442.66.442 1.055v8.774a.467.467 0 0 0 .578.454.475.475 0 0 0 .241-.139l9.342-10.097c.141-.153.313-.275.504-.358.192-.083.398-.126.607-.127h49.369c.65 0 1.272-.256 1.731-.711.46-.455.718-1.072.719-1.715v-17.639a2.417 2.417 0 0 0-.719-1.715 2.458 2.458 0 0 0-1.731-.711H100.52Z" fill="#571AFF"/><path d="M84.07 139.272a16.881 16.881 0 0 1-8.777 2.62 16.887 16.887 0 0 1-8.856-2.343 10.123 10.123 0 0 1 1.77-2.359 10.064 10.064 0 0 1 3.86-2.394 10.146 10.146 0 0 1 8.8 1.098 10.009 10.009 0 0 1 3.138 3.267c.021.036.044.073.065.111Z" fill="#F4ED0F"/><path d="M74.517 130.353c4.597 0 8.322-3.691 8.322-8.245 0-4.553-3.725-8.245-8.322-8.245-4.596 0-8.322 3.692-8.322 8.245 0 4.554 3.726 8.245 8.322 8.245Z" fill="#2F2E41"/><path d="M80.708 127.924c1.64-2.974.538-6.702-2.464-8.328-3.002-1.625-6.765-.532-8.406 2.441-1.64 2.974-.537 6.703 2.464 8.328 3.002 1.626 6.765.533 8.406-2.441Z" fill="#FFB8B8"/><path d="M68.766 121.118a8.474 8.474 0 0 0 4.814 1.474 5.19 5.19 0 0 1-2.046.834c2.285.486 4.647.499 6.938.039a4.5 4.5 0 0 0 1.453-.495 1.82 1.82 0 0 0 .897-1.187c.152-.862-.526-1.645-1.23-2.172a9.105 9.105 0 0 0-3.64-1.605 9.149 9.149 0 0 0-3.982.096c-.852.218-1.705.586-2.258 1.264-.553.677-.716 1.721-.19 2.419l-.756-.667Z" fill="#2F2E41"/><path d="M75.024 142.084a17.029 17.029 0 0 1-11.093-4.104 16.737 16.737 0 0 1-5.67-10.299 16.656 16.656 0 0 1 2.524-11.462 16.924 16.924 0 0 1 9.485-7.023 17.082 17.082 0 0 1 11.81.847 16.861 16.861 0 0 1 8.365 8.304 16.637 16.637 0 0 1 .832 11.702 16.8 16.8 0 0 1-7.108 9.383 17.034 17.034 0 0 1-9.145 2.652Zm0-33.202a16.68 16.68 0 0 0-9.206 2.766 16.455 16.455 0 0 0-6.104 7.367 16.274 16.274 0 0 0-.943 9.485 16.369 16.369 0 0 0 4.535 8.406 16.616 16.616 0 0 0 8.484 4.493c3.215.633 6.546.308 9.574-.935a16.537 16.537 0 0 0 7.436-6.046 16.308 16.308 0 0 0 2.792-9.121 16.359 16.359 0 0 0-4.858-11.602 16.667 16.667 0 0 0-11.71-4.813Z" fill="#3F3D56"/><path d="M103.926 135.483c2.548 0 4.613-.227 4.613-.507s-2.065-.507-4.613-.507c-2.548 0-4.614.227-4.614.507s2.066.507 4.614.507Zm-41.23-59.691c2.547 0 4.613-.227 4.613-.507s-2.066-.508-4.613-.508c-2.548 0-4.614.227-4.614.508 0 .28 2.066.507 4.614.507Z" fill="#F2F2F2"/><path fill="#fff" d="M7.215 45.699h54.007v4.484H7.215zm98.371 60.215h54.007v4.484h-54.007zM7.215 52.105h27.004v4.484H7.215zm98.371 60.215h27.004v4.484h-27.004z"/></g><defs><clipPath id="a"><path fill="#fff" d="M0 0h168v161H0z"/></clipPath></defs></svg>
